X: 1
T:The Piper's Hoedown
M:C|
L:1/8
Q:80
C:Danny Edwards
S:March
K:HP
|: a3/4f/4|
{g}e3/4f/4{g}c/4d3/4{gcd}c3/4B/4{g}A3/4{d}c/4|
{g}e3/4f/4{g}B/4-c3/4{gef}e{g}f3/4g/4|  !
a3/4d/4{g}f/4a3/4e/4f3/4{g}f3/4g/4|
a{GdG}a3/4f/4{gef}ea3/4f/4{g}e3/4f/4{g}c/4d3/4{gcd}c3/4B/4{g}A3/4{d}c/4|

{g}e3/4f/4{g}B/4-c3/4{gef}e{g}f3/4e/4|  !
{g}d3/4e/4{g}c/4d3/4{g}B3/4{d}c/4{g}e/4f3/4|
{g}A2{GAG}A:| |:
{g}e3/4f/4|  !
{g}B/4c3/4{g}e3/4f/4{g}A3/4{d}c/4{g}e3/4f/4|
{g}B/4-c3/4{g}e3/4f/4{gef}e{g}f3/4g/4|
a3/4d/4{g}f/4a3/4e/4f3/4{g}f3/4g/4|  !
a{GdG}a3/4f/4{gef}e{g}e3/4f/4|1 {g}B/4c3/4{g}e3/4f/4{g}A3/4{d}c/4{g}e3/4
f/4|
{g}B/4-c3/4{g}e3/4f/4{gef}e{g}f3/4e/4|
{g}d3/4e/4{g}c/4d3/4{g}B3/4{d}c/4{g}e/4f3/4|  !
{g}A2{GAG}A:|2
{gAGAG}A{g}A3/4{d}B/4{g}A3/4B/4{G}B3/4{d}c/4|
{g}e3/4f/4{g}B/4-c3/4{gef}e{g}f3/4e/4|  !
{g}d3/4e/4{g}c/4d3/4{g}B3/4{d}c/4{g}e/4f3/4|
{g}A2{GAG}A|]
